X:6
T:British Grenadiers
Z:Jack Campin  *  May 2000  *  http://www.campin.me.uk/
M:2/4
L:1/8
K:D
A2      |dc  de|f2 ef|gf ed      |c2 BA|dc    de   |f2    ef   |gf ed      |c2:|
d/c/B/A/|A>B AF|A2 AA|BB g/f/e/d/|c2 BA|dc/d/ ed/e/|fe/f/ gf/g/|ad f/e/d/c/|d2:|

